X: 1
T: Maple Leaf Rant [ABCDD]
C: Jimmy Boal
N: Maple Leaf Band, Dundee
R: reel
Z: 2009 John Chambers <jc:trillian.mit.edu>
S: File file Janis Dairiki 2009-2-13
M: C|
L: 1/8
K: D
"A"[|]\
"A7"A2 \
| "D"A2{BA}^GA B2A2 | d2{ed}cd e2d2 | dAdf a2_a2 \
| "Em"g4- "A7"g2A2 | "A7"A2{BA}^GA B2A2 |
| "A7"c2{dc}^Bc e2c2 | "Em"gagf "A7"edcB | "D"A4- A2"A7"A2 \
"B"\
|[| "D"A2{BA}^GA B2A2 | d2{ed}cd e2d2 | f2de "D7"fga^a |
| "G"b8 | "G"bdgb dgbd | "D"adfa dfad \
| "Em"gfed "A7"cdec | "D"d6 \
"C"\
|]| "D7"A2 | "G"B2B2 BcdB | "D"A2F2 F4 |
| "Em"G2G2 "A7"GABG | "D"A4- "D7"A4 | "G"B2B2 BcdB \
| "D"A2F2 F4 | "E7"E^GBd c2B2 | "A"A4- A2 \
"D"\
|: "D7"A2 | "G"B3B B2d2 |
| "D"A3A A2F2 | "Em"G3G G2B2 | "D"A4- A4 \
| "G"B3B B2d2 | "D"A2f2 "E7"edcB | "A7"A2f2 f3e | "D"d4- d2 :|
